X:1
T:Carl-Erics Gnglt 
C:Carl-Eric Berndt
R:Gnglt
O:Lund, Skne
M:2/4
L:1/8
K:G
|: Bc | dg Bc | (5ded^cd ed | c>B AG | F2 AB | c>d cB | Ad fa | g>f gB |
d z Bc | dg Bc | (5ded^cd ed | c>B AG | F2 AB | c>d cB | Ad fa | [gB]2 g>g | [gB]2 :|
|: (ba) | g>f ed |c>B AG | F>G AB | (5cdcBc (ag) | f>e dA | ed ^cd | B>c de | d2 (ba) |
g>f ed | c>B AG | F>G AB | (5cdcBc (ag) | f>g fe | d(^c1/2d1/2) ef | g2 g>g | [gB]2 :|
